public/img/icons/twitter.svg

<svg width="24" height="24" viewBox="0 0 24 24" fill="none" xmlns="http://www.w3.org/2000/svg">
<path d="M22.1621 5.656C21.3986 5.9937 20.589 6.21548 19.7601 6.314C20.6338 5.79144 21.2878 4.96902 21.6001 4C20.7801 4.488 19.8811 4.83 18.9441 5.015C18.3147 4.34158 17.4804 3.89497 16.571 3.74459C15.6616 3.59421 14.728 3.74849 13.9153 4.18346C13.1026 4.61842 12.4564 5.30969 12.0772 6.1498C11.6979 6.9899 11.6068 7.93178 11.8181 8.829C10.1552 8.74566 8.52838 8.31353 7.04334 7.56067C5.55829 6.80781 4.24818 5.75105 3.19805 4.459C2.82634 5.09745 2.63101 5.82323 2.63205 6.562C2.63205 8.012 3.37005 9.293 4.49205 10.043C3.82806 10.0221 3.17869 9.84278 2.59805 9.52V9.572C2.59825 10.5377 2.93242 11.4736 3.5439 12.2211C4.15538 12.9685 5.00653 13.4815 5.95305 13.673C5.33667 13.84 4.69036 13.8647 4.06305 13.745C4.32992 14.5762 4.85006 15.3032 5.55064 15.8241C6.25123 16.345 7.09718 16.6338 7.97005 16.65C7.10253 17.3313 6.10923 17.835 5.04693 18.1322C3.98464 18.4294 2.87418 18.5143 1.77905 18.382C3.69075 19.6114 5.91615 20.2641 8.18905 20.262C15.8821 20.262 20.0891 13.889 20.0891 8.362C20.0891 8.182 20.0841 8 20.0761 7.822C20.8949 7.23017 21.6017 6.49702 22.1631 5.657L22.1621 5.656Z" fill="#607B96"/>
</svg>

<svg width="24" height="24" fill="none" xmlns="http://www.w3.org/2000/svg"><path d="M22.162 5.656a8.385 8.385 0 01-2.402.658A4.196 4.196 0 0021.6 4c-.82.488-1.719.83-2.656 1.015a4.182 4.182 0 00-7.126 3.814 11.874 11.874 0 01-8.62-4.37 4.168 4.168 0 00-.566 2.103c0 1.45.738 2.731 1.86 3.481a4.168 4.168 0 01-1.894-.523v.052a4.185 4.185 0 003.355 4.101 4.21 4.21 0 01-1.89.072A4.185 4.185 0 007.97 16.65a8.395 8.395 0 01-6.19 1.732 11.83 11.83 0 006.409 1.88c7.693 0 11.9-6.373 11.9-11.9 0-.18-.005-.362-.013-.54a8.497 8.497 0 002.087-2.165v-.001z" fill="#607B96"/></svg>
